static/img/kroki/73b28122be65d48d9fdc13e5a2a20511.svg

<?xml version="1.0" encoding="us-ascii" standalone="no"?><svg xmlns="http://www.w3.org/2000/svg" xmlns:xlink="http://www.w3.org/1999/xlink" contentStyleType="text/css" height="252px" preserveAspectRatio="none" style="width:1743px;height:252px;" version="1.1" viewBox="0 0 1743 252" width="1743px" zoomAndPan="magnify"><defs/><g><!--class azure_cosmos_db_location--><g id="elem_azure_cosmos_db_location"><rect codeLine="23" fill="#3D176E" height="39.7891" id="azure_cosmos_db_location" rx="2.5" ry="2.5" style="stroke:#000D19;stroke-width:0.5;" width="262" x="810" y="7"/><ellipse cx="825" cy="26.8945" fill="#ADD1B2" rx="11" ry="11" style="stroke:#181818;stroke-width:1.0;"/><path d="M827.9688,32.5352 Q827.3906,32.832 826.75,32.9727 Q826.1094,33.1289 825.4063,33.1289 Q822.9063,33.1289 821.5781,31.4883 Q820.2656,29.832 820.2656,26.707 Q820.2656,23.582 821.5781,21.9258 Q822.9063,20.2695 825.4063,20.2695 Q826.1094,20.2695 826.75,20.4258 Q827.4063,20.582 827.9688,20.8789 L827.9688,23.5977 Q827.3438,23.0195 826.75,22.7539 Q826.1563,22.4727 825.5313,22.4727 Q824.1875,22.4727 823.5,23.5508 Q822.8125,24.6133 822.8125,26.707 Q822.8125,28.8008 823.5,29.8789 Q824.1875,30.9414 825.5313,30.9414 Q826.1563,30.9414 826.75,30.6758 Q827.3438,30.3945 827.9688,29.8164 L827.9688,32.5352 Z " fill="#000000"/><text fill="#D9B8FF" font-family="Helvetica" font-size="17" lengthAdjust="spacing" textLength="220" x="844" y="32.7798">azure_cosmos_db_location</text></g><!--class azure_cosmos_db_restorable_account--><g id="elem_azure_cosmos_db_restorable_account"><rect codeLine="26" fill="#3D176E" height="39.7891" id="azure_cosmos_db_restorable_account" rx="2.5" ry="2.5" style="stroke:#000D19;stroke-width:0.5;" width="354" x="764" y="106.79"/><ellipse cx="779" cy="126.6845" fill="#ADD1B2" rx="11" ry="11" style="stroke:#181818;stroke-width:1.0;"/><path d="M781.9688,132.3252 Q781.3906,132.622 780.75,132.7627 Q780.1094,132.9189 779.4063,132.9189 Q776.9063,132.9189 775.5781,131.2783 Q774.2656,129.622 774.2656,126.497 Q774.2656,123.372 775.5781,121.7158 Q776.9063,120.0595 779.4063,120.0595 Q780.1094,120.0595 780.75,120.2158 Q781.4063,120.372 781.9688,120.6689 L781.9688,123.3877 Q781.3438,122.8095 780.75,122.5439 Q780.1563,122.2627 779.5313,122.2627 Q778.1875,122.2627 777.5,123.3408 Q776.8125,124.4033 776.8125,126.497 Q776.8125,128.5908 777.5,129.6689 Q778.1875,130.7314 779.5313,130.7314 Q780.1563,130.7314 780.75,130.4658 Q781.3438,130.1845 781.9688,129.6064 L781.9688,132.3252 Z " fill="#000000"/><text fill="#D9B8FF" font-family="Helvetica" font-size="17" lengthAdjust="spacing" textLength="312" x="798" y="132.5698">azure_cosmos_db_restorable_account</text></g><!--class azure_cosmos_db_restorable_gremlin_database--><g id="elem_azure_cosmos_db_restorable_gremlin_database"><rect codeLine="29" fill="#3D176E" height="39.7891" id="azure_cosmos_db_restorable_gremlin_database" rx="2.5" ry="2.5" style="stroke:#000D19;stroke-width:0.5;" width="438" x="7" y="206.58"/><ellipse cx="22" cy="226.4745" fill="#ADD1B2" rx="11" ry="11" style="stroke:#181818;stroke-width:1.0;"/><path d="M24.9688,232.1152 Q24.3906,232.412 23.75,232.5527 Q23.1094,232.7089 22.4063,232.7089 Q19.9063,232.7089 18.5781,231.0683 Q17.2656,229.412 17.2656,226.287 Q17.2656,223.162 18.5781,221.5058 Q19.9063,219.8495 22.4063,219.8495 Q23.1094,219.8495 23.75,220.0058 Q24.4063,220.162 24.9688,220.4589 L24.9688,223.1777 Q24.3438,222.5995 23.75,222.3339 Q23.1563,222.0527 22.5313,222.0527 Q21.1875,222.0527 20.5,223.1308 Q19.8125,224.1933 19.8125,226.287 Q19.8125,228.3808 20.5,229.4589 Q21.1875,230.5214 22.5313,230.5214 Q23.1563,230.5214 23.75,230.2558 Q24.3438,229.9745 24.9688,229.3964 L24.9688,232.1152 Z " fill="#000000"/><text fill="#D9B8FF" font-family="Helvetica" font-size="17" lengthAdjust="spacing" textLength="396" x="41" y="232.3598">azure_cosmos_db_restorable_gremlin_database</text></g><!--class azure_cosmos_db_restorable_mongo_db_database--><g id="elem_azure_cosmos_db_restorable_mongo_db_database"><rect codeLine="32" fill="#3D176E" height="39.7891" id="azure_cosmos_db_restorable_mongo_db_database" rx="2.5" ry="2.5" style="stroke:#000D19;stroke-width:0.5;" width="460" x="480" y="206.58"/><ellipse cx="495" cy="226.4745" fill="#ADD1B2" rx="11" ry="11" style="stroke:#181818;stroke-width:1.0;"/><path d="M497.9688,232.1152 Q497.3906,232.412 496.75,232.5527 Q496.1094,232.7089 495.4063,232.7089 Q492.9063,232.7089 491.5781,231.0683 Q490.2656,229.412 490.2656,226.287 Q490.2656,223.162 491.5781,221.5058 Q492.9063,219.8495 495.4063,219.8495 Q496.1094,219.8495 496.75,220.0058 Q497.4063,220.162 497.9688,220.4589 L497.9688,223.1777 Q497.3438,222.5995 496.75,222.3339 Q496.1563,222.0527 495.5313,222.0527 Q494.1875,222.0527 493.5,223.1308 Q492.8125,224.1933 492.8125,226.287 Q492.8125,228.3808 493.5,229.4589 Q494.1875,230.5214 495.5313,230.5214 Q496.1563,230.5214 496.75,230.2558 Q497.3438,229.9745 497.9688,229.3964 L497.9688,232.1152 Z " fill="#000000"/><text fill="#D9B8FF" font-family="Helvetica" font-size="17" lengthAdjust="spacing" textLength="418" x="514" y="232.3598">azure_cosmos_db_restorable_mongo_db_database</text></g><!--class azure_cosmos_db_restorable_sql_database--><g id="elem_azure_cosmos_db_restorable_sql_database"><rect codeLine="35" fill="#3D176E" height="39.7891" id="azure_cosmos_db_restorable_sql_database" rx="2.5" ry="2.5" style="stroke:#000D19;stroke-width:0.5;" width="396" x="975" y="206.58"/><ellipse cx="990" cy="226.4745" fill="#ADD1B2" rx="11" ry="11" style="stroke:#181818;stroke-width:1.0;"/><path d="M992.9688,232.1152 Q992.3906,232.412 991.75,232.5527 Q991.1094,232.7089 990.4063,232.7089 Q987.9063,232.7089 986.5781,231.0683 Q985.2656,229.412 985.2656,226.287 Q985.2656,223.162 986.5781,221.5058 Q987.9063,219.8495 990.4063,219.8495 Q991.1094,219.8495 991.75,220.0058 Q992.4063,220.162 992.9688,220.4589 L992.9688,223.1777 Q992.3438,222.5995 991.75,222.3339 Q991.1563,222.0527 990.5313,222.0527 Q989.1875,222.0527 988.5,223.1308 Q987.8125,224.1933 987.8125,226.287 Q987.8125,228.3808 988.5,229.4589 Q989.1875,230.5214 990.5313,230.5214 Q991.1563,230.5214 991.75,230.2558 Q992.3438,229.9745 992.9688,229.3964 L992.9688,232.1152 Z " fill="#000000"/><text fill="#D9B8FF" font-family="Helvetica" font-size="17" lengthAdjust="spacing" textLength="354" x="1009" y="232.3598">azure_cosmos_db_restorable_sql_database</text></g><!--class azure_cosmos_db_restorable_table--><g id="elem_azure_cosmos_db_restorable_table"><rect codeLine="38" fill="#3D176E" height="39.7891" id="azure_cosmos_db_restorable_table" rx="2.5" ry="2.5" style="stroke:#000D19;stroke-width:0.5;" width="331" x="1405.5" y="206.58"/><ellipse cx="1420.5" cy="226.4745" fill="#ADD1B2" rx="11" ry="11" style="stroke:#181818;stroke-width:1.0;"/><path d="M1423.4688,232.1152 Q1422.8906,232.412 1422.25,232.5527 Q1421.6094,232.7089 1420.9063,232.7089 Q1418.4063,232.7089 1417.0781,231.0683 Q1415.7656,229.412 1415.7656,226.287 Q1415.7656,223.162 1417.0781,221.5058 Q1418.4063,219.8495 1420.9063,219.8495 Q1421.6094,219.8495 1422.25,220.0058 Q1422.9063,220.162 1423.4688,220.4589 L1423.4688,223.1777 Q1422.8438,222.5995 1422.25,222.3339 Q1421.6563,222.0527 1421.0313,222.0527 Q1419.6875,222.0527 1419,223.1308 Q1418.3125,224.1933 1418.3125,226.287 Q1418.3125,228.3808 1419,229.4589 Q1419.6875,230.5214 1421.0313,230.5214 Q1421.6563,230.5214 1422.25,230.2558 Q1422.8438,229.9745 1423.4688,229.3964 L1423.4688,232.1152 Z " fill="#000000"/><text fill="#D9B8FF" font-family="Helvetica" font-size="17" lengthAdjust="spacing" textLength="289" x="1439.5" y="232.3598">azure_cosmos_db_restorable_table</text></g><!--link azure_cosmos_db_location to azure_cosmos_db_restorable_account--><g id="link_azure_cosmos_db_location_azure_cosmos_db_restorable_account"><path codeLine="41" d="M941,47.22 C941,64.36 941,83.27 941,100.41 " fill="none" id="azure_cosmos_db_location-to-azure_cosmos_db_restorable_account" style="stroke:#1A83AF;stroke-width:2.0;"/><polygon fill="#1A83AF" points="941,106.41,945,97.41,941,101.41,937,97.41,941,106.41" style="stroke:#1A83AF;stroke-width:2.0;"/></g><!--link azure_cosmos_db_restorable_account to azure_cosmos_db_restorable_gremlin_database--><g id="link_azure_cosmos_db_restorable_account_azure_cosmos_db_restorable_gremlin_database"><path codeLine="42" d="M799.31,147.06 C674.22,164.17 498.7547,188.1669 373.6547,205.2769 " fill="none" id="azure_cosmos_db_restorable_account-to-azure_cosmos_db_restorable_gremlin_database" style="stroke:#1A83AF;stroke-width:2.0;"/><polygon fill="#1A83AF" points="367.71,206.09,377.169,208.8335,372.6639,205.4125,376.0849,200.9073,367.71,206.09" style="stroke:#1A83AF;stroke-width:2.0;"/></g><!--link azure_cosmos_db_restorable_account to azure_cosmos_db_restorable_mongo_db_database--><g id="link_azure_cosmos_db_restorable_account_azure_cosmos_db_restorable_mongo_db_database"><path codeLine="43" d="M895.36,147.01 C854.86,164.15 801.5349,186.7201 761.0649,203.8601 " fill="none" id="azure_cosmos_db_restorable_account-to-azure_cosmos_db_restorable_mongo_db_database" style="stroke:#1A83AF;stroke-width:2.0;"/><polygon fill="#1A83AF" points="755.54,206.2,765.3873,206.3734,760.1441,204.2501,762.2674,199.0068,755.54,206.2" style="stroke:#1A83AF;stroke-width:2.0;"/></g><!--link azure_cosmos_db_restorable_account to azure_cosmos_db_restorable_sql_database--><g id="link_azure_cosmos_db_restorable_account_azure_cosmos_db_restorable_sql_database"><path codeLine="44" d="M986.84,147.01 C1027.51,164.15 1081.0916,186.7284 1121.7316,203.8684 " fill="none" id="azure_cosmos_db_restorable_account-to-azure_cosmos_db_restorable_sql_database" style="stroke:#1A83AF;stroke-width:2.0;"/><polygon fill="#1A83AF" points="1127.26,206.2,1120.5218,199.0169,1122.653,204.257,1117.4129,206.3882,1127.26,206.2" style="stroke:#1A83AF;stroke-width:2.0;"/></g><!--link azure_cosmos_db_restorable_account to azure_cosmos_db_restorable_table--><g id="link_azure_cosmos_db_restorable_account_azure_cosmos_db_restorable_table"><path codeLine="45" d="M1065.84,147.06 C1176.06,164.17 1329.981,188.0596 1440.201,205.1696 " fill="none" id="azure_cosmos_db_restorable_account-to-azure_cosmos_db_restorable_table" style="stroke:#1A83AF;stroke-width:2.0;"/><polygon fill="#1A83AF" points="1446.13,206.09,1437.8501,200.7568,1441.1892,205.323,1436.6229,208.6621,1446.13,206.09" style="stroke:#1A83AF;stroke-width:2.0;"/></g><!--SRC=[hP5FJy904CNl_HIRS2QX4WKk9fM4w8KOyMPCCzsTbWtx1sSN2HY_knJKhAs5ad3PmynlthnvEvS26Ugbtp2DEaDoaLj8imG2pH8YknvRPObryXpo_g3Qd5ZZJm9JqCZkKRsZbnognFDSyeL1vzXLqBe3lYZ8hemuo7i2utOjD3wWnWgSIxmdcQqy1cR4A1lcUPMiYdRw8XxSO0sp992-aLwl9-9H5JcvwkZTlyHCRf75OMXJwx5cixPYJnrrMHA1oTgXF_r6ZuyWX3G5kmvgJmTFP93-r6Tp47PTqZae5wvn7WcjtonnNBiAHqEH3_w57vhWY9VHCTYk25DkdROk5LcgB0SlhM4VKVJPm10wRmaoXIbmlfFsBUc2K2jfKW4UCd3OSanRKzYoTkQSUrFdZlZoFR2DoNHVEd4ox2UJr-vjYsoY5l6rbQm6U4djMigN50-_ufAw-_-AlW00]--></g></svg>

<svg xmlns="http://www.w3.org/2000/svg" width="1743" height="252" viewBox="0 0 1743 252"><rect width="262" height="39.789" x="810" y="7" fill="#3D176E" rx="2.5" ry="2.5" style="stroke:#000d19;stroke-width:.5"/><circle cx="825" cy="26.895" r="11" fill="#ADD1B2" style="stroke:#181818;stroke-width:1"/><path d="M827.969 32.535q-.578.297-1.219.438-.64.156-1.344.156-2.5 0-3.828-1.64-1.312-1.657-1.312-4.782t1.312-4.781q1.328-1.656 3.828-1.656.703 0 1.344.156.656.156 1.219.453v2.719q-.625-.578-1.219-.844-.594-.281-1.219-.281-1.343 0-2.031 1.078-.687 1.062-.687 3.156t.687 3.172q.688 1.062 2.031 1.062.625 0 1.219-.265.594-.281 1.219-.86z"/><text x="844" y="32.78" fill="#D9B8FF" font-family="Helvetica" font-size="17" textLength="220">azure_cosmos_db_location</text><rect width="354" height="39.789" x="764" y="106.79" fill="#3D176E" rx="2.5" ry="2.5" style="stroke:#000d19;stroke-width:.5"/><circle cx="779" cy="126.684" r="11" fill="#ADD1B2" style="stroke:#181818;stroke-width:1"/><path d="M781.969 132.325q-.578.297-1.219.438-.64.156-1.344.156-2.5 0-3.828-1.64-1.312-1.657-1.312-4.782t1.312-4.781q1.328-1.656 3.828-1.656.703 0 1.344.156.656.156 1.219.453v2.719q-.625-.579-1.219-.844-.594-.281-1.219-.281-1.343 0-2.031 1.078-.687 1.062-.687 3.156t.687 3.172q.688 1.062 2.031 1.062.625 0 1.219-.265.594-.281 1.219-.86z"/><text x="798" y="132.57" fill="#D9B8FF" font-family="Helvetica" font-size="17" textLength="312">azure_cosmos_db_restorable_account</text><rect width="438" height="39.789" x="7" y="206.58" fill="#3D176E" rx="2.5" ry="2.5" style="stroke:#000d19;stroke-width:.5"/><circle cx="22" cy="226.475" r="11" fill="#ADD1B2" style="stroke:#181818;stroke-width:1"/><path d="M24.969 232.115q-.578.297-1.219.438-.64.156-1.344.156-2.5 0-3.828-1.64-1.312-1.657-1.312-4.782t1.312-4.781q1.328-1.656 3.828-1.656.703 0 1.344.156.656.156 1.219.453v2.719q-.625-.578-1.219-.844-.594-.281-1.219-.281-1.343 0-2.031 1.078-.687 1.062-.687 3.156t.687 3.172q.688 1.062 2.031 1.062.625 0 1.219-.265.594-.281 1.219-.86z"/><text x="41" y="232.36" fill="#D9B8FF" font-family="Helvetica" font-size="17" textLength="396">azure_cosmos_db_restorable_gremlin_database</text><rect width="460" height="39.789" x="480" y="206.58" fill="#3D176E" rx="2.5" ry="2.5" style="stroke:#000d19;stroke-width:.5"/><circle cx="495" cy="226.475" r="11" fill="#ADD1B2" style="stroke:#181818;stroke-width:1"/><path d="M497.969 232.115q-.578.297-1.219.438-.64.156-1.344.156-2.5 0-3.828-1.64-1.312-1.657-1.312-4.782t1.312-4.781q1.328-1.656 3.828-1.656.703 0 1.344.156.656.156 1.219.453v2.719q-.625-.578-1.219-.844-.594-.281-1.219-.281-1.344 0-2.031 1.078-.687 1.062-.687 3.156t.687 3.172q.688 1.062 2.031 1.062.625 0 1.219-.265.594-.281 1.219-.86z"/><text x="514" y="232.36" fill="#D9B8FF" font-family="Helvetica" font-size="17" textLength="418">azure_cosmos_db_restorable_mongo_db_database</text><rect width="396" height="39.789" x="975" y="206.58" fill="#3D176E" rx="2.5" ry="2.5" style="stroke:#000d19;stroke-width:.5"/><circle cx="990" cy="226.475" r="11" fill="#ADD1B2" style="stroke:#181818;stroke-width:1"/><path d="M992.969 232.115q-.578.297-1.219.438-.64.156-1.344.156-2.5 0-3.828-1.64-1.312-1.657-1.312-4.782t1.312-4.781q1.328-1.656 3.828-1.656.703 0 1.344.156.656.156 1.219.453v2.719q-.625-.578-1.219-.844-.594-.281-1.219-.281-1.343 0-2.031 1.078-.687 1.062-.687 3.156t.687 3.172q.688 1.062 2.031 1.062.625 0 1.219-.265.594-.281 1.219-.86z"/><text x="1009" y="232.36" fill="#D9B8FF" font-family="Helvetica" font-size="17" textLength="354">azure_cosmos_db_restorable_sql_database</text><rect width="331" height="39.789" x="1405.5" y="206.58" fill="#3D176E" rx="2.5" ry="2.5" style="stroke:#000d19;stroke-width:.5"/><circle cx="1420.5" cy="226.475" r="11" fill="#ADD1B2" style="stroke:#181818;stroke-width:1"/><path d="M1423.469 232.115q-.578.297-1.219.438-.64.156-1.344.156-2.5 0-3.828-1.64-1.312-1.657-1.312-4.782t1.312-4.781q1.328-1.656 3.828-1.656.703 0 1.344.156.656.156 1.219.453v2.719q-.625-.578-1.219-.844-.594-.281-1.219-.281-1.343 0-2.031 1.078-.687 1.062-.687 3.156t.687 3.172q.688 1.062 2.031 1.062.625 0 1.219-.265.594-.281 1.219-.86z"/><text x="1439.5" y="232.36" fill="#D9B8FF" font-family="Helvetica" font-size="17" textLength="289">azure_cosmos_db_restorable_table</text><path fill="none" d="M941 47.22v53.19" style="stroke:#1a83af;stroke-width:2"/><path fill="#1A83AF" d="m941 106.41 4-9-4 4-4-4z" style="stroke:#1a83af;stroke-width:2"/><path fill="none" d="M799.31 147.06c-125.09 17.11-300.555 41.107-425.655 58.217" style="stroke:#1a83af;stroke-width:2"/><path fill="#1A83AF" d="m367.71 206.09 9.459 2.743-4.505-3.42 3.42-4.506z" style="stroke:#1a83af;stroke-width:2"/><path fill="none" d="M895.36 147.01c-40.5 17.14-93.825 39.71-134.295 56.85" style="stroke:#1a83af;stroke-width:2"/><path fill="#1A83AF" d="m755.54 206.2 9.847.173-5.243-2.123 2.123-5.243z" style="stroke:#1a83af;stroke-width:2"/><path fill="none" d="M986.84 147.01c40.67 17.14 94.252 39.718 134.892 56.858" style="stroke:#1a83af;stroke-width:2"/><path fill="#1A83AF" d="m1127.26 206.2-6.738-7.183 2.131 5.24-5.24 2.131z" style="stroke:#1a83af;stroke-width:2"/><path fill="none" d="M1065.84 147.06c110.22 17.11 264.141 41 374.361 58.11" style="stroke:#1a83af;stroke-width:2"/><path fill="#1A83AF" d="m1446.13 206.09-8.28-5.333 3.34 4.566-4.567 3.34z" style="stroke:#1a83af;stroke-width:2"/></svg>
